public/images/logo2.svg

<svg width="240" height="200" fill="none" xmlns="http://www.w3.org/2000/svg"><path d="M93.728 116.432c.896.16 1.656.632 2.28 1.416.624.784.936 1.672.936 2.664 0 .848-.224 1.616-.672 2.304-.432.672-1.064 1.208-1.896 1.608-.832.384-1.8.576-2.904.576H84.8v-16.68h6.36c1.136 0 2.112.192 2.928.576.816.384 1.432.904 1.848 1.56.416.64.624 1.36.624 2.16 0 .96-.256 1.76-.768 2.4-.512.64-1.2 1.112-2.064 1.416Zm-6.192-1.104h3.384c.896 0 1.592-.2 2.088-.6.512-.416.768-1.008.768-1.776 0-.752-.256-1.336-.768-1.752-.496-.432-1.192-.648-2.088-.648h-3.384v4.776Zm3.696 7.44c.928 0 1.656-.224 2.184-.672.528-.448.792-1.072.792-1.872 0-.816-.28-1.464-.84-1.944-.56-.48-1.304-.72-2.232-.72h-3.6v5.208h3.696Zm11.421-9.072c.4-.672.928-1.192 1.584-1.56.672-.384 1.464-.576 2.376-.576v2.832h-.696c-1.072 0-1.888.272-2.448.816-.544.544-.816 1.488-.816 2.832V125h-2.736v-13.224h2.736v1.92Zm5.563 4.632c0-1.328.272-2.504.816-3.528.56-1.024 1.312-1.816 2.256-2.376a6.042 6.042 0 0 1 3.168-.864c1.04 0 1.944.208 2.712.624.784.4 1.408.904 1.872 1.512v-1.92h2.76V125h-2.76v-1.968c-.464.624-1.096 1.144-1.896 1.56-.8.416-1.712.624-2.736.624a5.875 5.875 0 0 1-3.12-.864c-.944-.592-1.696-1.408-2.256-2.448-.544-1.056-.816-2.248-.816-3.576Zm10.824.048c0-.912-.192-1.704-.576-2.376-.368-.672-.856-1.184-1.464-1.536a3.862 3.862 0 0 0-1.968-.528c-.704 0-1.36.176-1.968.528-.608.336-1.104.84-1.488 1.512-.368.656-.552 1.44-.552 2.352 0 .912.184 1.712.552 2.4.384.688.88 1.216 1.488 1.584.624.352 1.28.528 1.968.528.704 0 1.36-.176 1.968-.528.608-.352 1.096-.864 1.464-1.536.384-.688.576-1.488.576-2.4Zm13.026-6.816c1.04 0 1.968.216 2.784.648a4.59 4.59 0 0 1 1.944 1.92c.464.848.696 1.872.696 3.072v7.8h-2.712v-7.392c0-1.184-.296-2.088-.888-2.712-.592-.64-1.4-.96-2.424-.96s-1.84.32-2.448.96c-.592.624-.888 1.528-.888 2.712V125h-2.736v-13.224h2.736v1.512a4.549 4.549 0 0 1 1.704-1.272 5.57 5.57 0 0 1 2.232-.456Zm8.002 6.768c0-1.328.272-2.504.816-3.528.56-1.024 1.312-1.816 2.256-2.376.96-.576 2.024-.864 3.192-.864.864 0 1.712.192 2.544.576.848.368 1.52.864 2.016 1.488v-6.384h2.76V125h-2.76v-1.992c-.448.64-1.072 1.168-1.872 1.584-.784.416-1.688.624-2.712.624a6.042 6.042 0 0 1-3.168-.864c-.944-.592-1.696-1.408-2.256-2.448-.544-1.056-.816-2.248-.816-3.576Zm10.824.048c0-.912-.192-1.704-.576-2.376-.368-.672-.856-1.184-1.464-1.536a3.862 3.862 0 0 0-1.968-.528c-.704 0-1.36.176-1.968.528-.608.336-1.104.84-1.488 1.512-.368.656-.552 1.44-.552 2.352 0 .912.184 1.712.552 2.4.384.688.88 1.216 1.488 1.584.624.352 1.28.528 1.968.528.704 0 1.36-.176 1.968-.528.608-.352 1.096-.864 1.464-1.536.384-.688.576-1.488.576-2.4ZM119 66l9.526 16.5h-19.052L119 66Z" fill="#fff"/><path d="m119 80 9.526 16.5h-19.052L119 80Z" fill="#fff"/></svg>

<svg width="240" height="200" viewBox="0 0 240 200" fill="none" xmlns="http://www.w3.org/2000/svg">
<path d="M93.728 116.432C94.624 116.592 95.384 117.064 96.008 117.848C96.632 118.632 96.944 119.52 96.944 120.512C96.944 121.36 96.72 122.128 96.272 122.816C95.84 123.488 95.208 124.024 94.376 124.424C93.544 124.808 92.576 125 91.472 125H84.8V108.32H91.16C92.296 108.32 93.272 108.512 94.088 108.896C94.904 109.28 95.52 109.8 95.936 110.456C96.352 111.096 96.56 111.816 96.56 112.616C96.56 113.576 96.304 114.376 95.792 115.016C95.28 115.656 94.592 116.128 93.728 116.432ZM87.536 115.328H90.92C91.816 115.328 92.512 115.128 93.008 114.728C93.52 114.312 93.776 113.72 93.776 112.952C93.776 112.2 93.52 111.616 93.008 111.2C92.512 110.768 91.816 110.552 90.92 110.552H87.536V115.328ZM91.232 122.768C92.16 122.768 92.888 122.544 93.416 122.096C93.944 121.648 94.208 121.024 94.208 120.224C94.208 119.408 93.928 118.76 93.368 118.28C92.808 117.8 92.064 117.56 91.136 117.56H87.536V122.768H91.232ZM102.653 113.696C103.053 113.024 103.581 112.504 104.237 112.136C104.909 111.752 105.701 111.56 106.613 111.56V114.392H105.917C104.845 114.392 104.029 114.664 103.469 115.208C102.925 115.752 102.653 116.696 102.653 118.04V125H99.9172V111.776H102.653V113.696ZM108.216 118.328C108.216 117 108.488 115.824 109.032 114.8C109.592 113.776 110.344 112.984 111.288 112.424C112.248 111.848 113.304 111.56 114.456 111.56C115.496 111.56 116.4 111.768 117.168 112.184C117.952 112.584 118.576 113.088 119.04 113.696V111.776H121.8V125H119.04V123.032C118.576 123.656 117.944 124.176 117.144 124.592C116.344 125.008 115.432 125.216 114.408 125.216C113.272 125.216 112.232 124.928 111.288 124.352C110.344 123.76 109.592 122.944 109.032 121.904C108.488 120.848 108.216 119.656 108.216 118.328ZM119.04 118.376C119.04 117.464 118.848 116.672 118.464 116C118.096 115.328 117.608 114.816 117 114.464C116.392 114.112 115.736 113.936 115.032 113.936C114.328 113.936 113.672 114.112 113.064 114.464C112.456 114.8 111.96 115.304 111.576 115.976C111.208 116.632 111.024 117.416 111.024 118.328C111.024 119.24 111.208 120.04 111.576 120.728C111.96 121.416 112.456 121.944 113.064 122.312C113.688 122.664 114.344 122.84 115.032 122.84C115.736 122.84 116.392 122.664 117 122.312C117.608 121.96 118.096 121.448 118.464 120.776C118.848 120.088 119.04 119.288 119.04 118.376ZM132.066 111.56C133.106 111.56 134.034 111.776 134.85 112.208C135.682 112.64 136.33 113.28 136.794 114.128C137.258 114.976 137.49 116 137.49 117.2V125H134.778V117.608C134.778 116.424 134.482 115.52 133.89 114.896C133.298 114.256 132.49 113.936 131.466 113.936C130.442 113.936 129.626 114.256 129.018 114.896C128.426 115.52 128.13 116.424 128.13 117.608V125H125.394V111.776H128.13V113.288C128.578 112.744 129.146 112.32 129.834 112.016C130.538 111.712 131.282 111.56 132.066 111.56ZM140.068 118.328C140.068 117 140.34 115.824 140.884 114.8C141.444 113.776 142.196 112.984 143.14 112.424C144.1 111.848 145.164 111.56 146.332 111.56C147.196 111.56 148.044 111.752 148.876 112.136C149.724 112.504 150.396 113 150.892 113.624V107.24H153.652V125H150.892V123.008C150.444 123.648 149.82 124.176 149.02 124.592C148.236 125.008 147.332 125.216 146.308 125.216C145.156 125.216 144.1 124.928 143.14 124.352C142.196 123.76 141.444 122.944 140.884 121.904C140.34 120.848 140.068 119.656 140.068 118.328ZM150.892 118.376C150.892 117.464 150.7 116.672 150.316 116C149.948 115.328 149.46 114.816 148.852 114.464C148.244 114.112 147.588 113.936 146.884 113.936C146.18 113.936 145.524 114.112 144.916 114.464C144.308 114.8 143.812 115.304 143.428 115.976C143.06 116.632 142.876 117.416 142.876 118.328C142.876 119.24 143.06 120.04 143.428 120.728C143.812 121.416 144.308 121.944 144.916 122.312C145.54 122.664 146.196 122.84 146.884 122.84C147.588 122.84 148.244 122.664 148.852 122.312C149.46 121.96 149.948 121.448 150.316 120.776C150.7 120.088 150.892 119.288 150.892 118.376Z" fill="white"/>
<path d="M119 66L128.526 82.5H109.474L119 66Z" fill="white"/>
<path d="M119 80L128.526 96.5H109.474L119 80Z" fill="white"/>
</svg>
